assets/svgs/depart.svg

<svg viewBox="0 0 1024 1024" xmlns="http://www.w3.org/2000/svg"><path d="m784.30208 866.03776h-208.81408v-239.67744h-126.93504v239.67744h-208.85504v-209.408c-22.4256 8.9088-49.54112 2.49856-66.56-16.91648-23.30624-26.54208-23.30624-68.17792.02048-94.78144l338.86208-386.94912 338.86208 386.9696c23.26528 26.58304 23.26528 68.21888 0 94.76096-16.95744 19.456-44.15488 25.86624-66.58048 16.93696zm-167.85408-40.96h126.89408v-267.32544l48.18944 54.96832c8.04864 9.15456 20.6848 9.07264 28.52864.04096 9.728-11.07968 9.70752-29.77792.02048-40.83712l-308.06016-351.76448-308.06016 351.76448c-9.70752 11.07968-9.70752 29.73696-.02048 40.77568 8.00768 9.13408 20.60288 9.1136 28.52864.02048l48.20992-54.96832v267.32544h126.91456v-239.67744h208.85504z" fill="#070606"/></svg>

<svg xmlns="http://www.w3.org/2000/svg" viewBox="0 0 1024 1024" version="1.1"><path d="M784.30208 866.03776H575.488V626.36032h-126.93504v239.67744H239.69792V656.62976c-22.4256 8.9088-49.54112 2.49856-66.56-16.91648-23.30624-26.54208-23.30624-68.17792 0.02048-94.78144L512.02048 157.98272l338.86208 386.9696c23.26528 26.58304 23.26528 68.21888 0 94.76096-16.95744 19.456-44.15488 25.86624-66.58048 16.93696v209.38752z m-167.85408-40.96h126.89408V557.75232l48.18944 54.96832c8.04864 9.15456 20.6848 9.07264 28.52864 0.04096 9.728-11.07968 9.70752-29.77792 0.02048-40.83712L512.02048 220.16 203.96032 571.92448c-9.70752 11.07968-9.70752 29.73696-0.02048 40.77568 8.00768 9.13408 20.60288 9.1136 28.52864 0.02048l48.20992-54.96832v267.32544h126.91456V585.40032H616.448v239.67744z" fill="#070606" p-id="6867"></path></svg>
